src/assets/img/icons/duotone-icons/Files/Downloads-folder.svg

<?xml version="1.0" encoding="UTF-8"?>
<svg width="24px" height="24px" viewBox="0 0 24 24" version="1.1" xmlns="http://www.w3.org/2000/svg" xmlns:xlink="http://www.w3.org/1999/xlink">
    <!-- Generator: Sketch 52.2 (67145) - http://www.bohemiancoding.com/sketch -->
    <title>Stockholm-icons / Files / Downloads-folder</title>
    <desc>Created with Sketch.</desc>
    <g id="Stockholm-icons-/-Files-/-Downloads-folder" stroke="none" stroke-width="1" fill="none" fill-rule="evenodd">
        <rect id="bound" x="0" y="0" width="24" height="24"></rect>
        <path d="M3.5,21 L20.5,21 C21.3284271,21 22,20.3284271 22,19.5 L22,8.5 C22,7.67157288 21.3284271,7 20.5,7 L10,7 L7.43933983,4.43933983 C7.15803526,4.15803526 6.77650439,4 6.37867966,4 L3.5,4 C2.67157288,4 2,4.67157288 2,5.5 L2,19.5 C2,20.3284271 2.67157288,21 3.5,21 Z" id="Combined-Shape" fill="#335EEA" opacity="0.3"></path>
        <path d="M10.9270649,10.8549025 L10.9270649,12.811376 L8.91939356,12.811376 C8.64325119,12.811376 8.41939356,13.0352336 8.41939356,13.311376 L8.41939356,14.3346747 C8.41939356,14.6108171 8.64325119,14.8346747 8.91939356,14.8346747 L10.9270649,14.8346747 L10.9270649,16.7911482 C10.9270649,17.0672906 11.1509225,17.2911482 11.4270649,17.2911482 C11.5453765,17.2911482 11.6598551,17.2491944 11.7501498,17.172745 L15.2558109,14.2046222 C15.466561,14.0261873 15.4927577,13.7106906 15.3143228,13.4999405 C15.296469,13.4788533 15.2768981,13.4592823 15.2558109,13.4414286 L11.7501498,10.4733057 C11.5393997,10.2948708 11.2239029,10.3210675 11.045468,10.5318176 C10.9690186,10.6221123 10.9270649,10.7365909 10.9270649,10.8549025 Z" id="Shape" fill="#335EEA"></path>
    </g>
</svg>

<svg width="24" height="24" viewBox="0 0 24 24" xmlns="http://www.w3.org/2000/svg"><g fill="none" fill-rule="evenodd"><path d="M0 0h24v24H0z"/><path d="M3.5 21h17a1.5 1.5 0 001.5-1.5v-11A1.5 1.5 0 0020.5 7H10L7.44 4.44A1.5 1.5 0 006.378 4H3.5A1.5 1.5 0 002 5.5v14A1.5 1.5 0 003.5 21z" fill="#335EEA" opacity=".3"/><path d="M10.927 10.855v1.956H8.92a.5.5 0 00-.5.5v1.024a.5.5 0 00.5.5h2.008v1.956a.5.5 0 00.823.382l3.506-2.968a.5.5 0 000-.764l-3.506-2.968a.5.5 0 00-.823.382z" fill="#335EEA"/></g></svg>
